public/logo-colors.svg

<svg xmlns="http://www.w3.org/2000/svg" width="840" height="560" viewBox="0 0 840 560" xmlns:xlink="http://www.w3.org/1999/xlink">
  <defs>
    <rect id="a" width="420" height="280"/>
    <mask id="c" width="420" height="280" x="0" y="0" fill="white">
      <use xlink:href="#a"/>
    </mask>
    <rect id="d" width="420" height="280" x="420"/>
    <rect id="b" width="420" height="280" x="420" y="280"/>
    <mask id="e" width="420" height="280" x="0" y="0" fill="white">
      <use xlink:href="#b"/>
    </mask>
    <path id="f" d="M146.747924,161.144939 C143.834928,157.66164 142.071698,153.172716 142.071698,148.272467 L142.079881,116.419816 C142.079881,113.822222 144.177461,111.709908 146.756108,111.709908 C149.334462,111.709908 151.432334,113.822222 151.432334,116.419816 L151.424151,148.272467 C151.424151,153.172716 149.660921,157.66164 146.747924,161.144939 L146.747924,161.144939 Z M181.819622,148.272467 C181.819622,159.310476 173.00289,168.290092 162.044153,168.290092 C157.630088,168.290092 153.512086,166.815391 150.210085,164.353923 C153.902258,160.025581 156.100377,154.412879 156.100377,148.272467 L156.10856,116.419816 C156.10856,111.225806 151.912816,107 146.756108,107 C141.599107,107 137.403655,111.225806 137.403655,116.419816 L137.395472,148.272467 C137.395472,154.412879 139.741184,160.025581 143.433357,164.353923 C140.131356,166.815391 136.013354,168.290092 131.599289,168.290092 C120.640552,168.290092 111.676226,159.310476 111.676226,148.272467 L111.676226,109.415209 L107,109.415209 L107,148.272467 C107,161.906892 118.111298,173 131.648682,173 C137.387873,173 142.710587,170.991107 146.895518,167.654836 C151.080448,170.991107 156.280412,173 162.019603,173 C175.556694,173 186.496141,161.906892 186.496141,148.272467 L186.496141,109.415209 L181.819622,109.415209 L181.819622,148.272467 Z M200.532448,171.752324 L205.208674,171.752324 L205.208674,109.28748 L200.532448,109.28748 L200.532448,171.752324 Z M246.148394,108.198382 C236.920738,108.198382 228.763937,112.901219 223.913229,120.051675 L223.913229,109.287686 L219.237003,109.287686 L219.237003,171.75253 L223.913229,171.75253 L223.913229,135.308124 L223.91586,135.308124 C223.91586,122.961594 233.889374,112.917424 246.148394,112.917424 L246.148394,108.198382 Z M254.912694,158.450288 C245.813926,147.579932 246.340294,131.257161 256.495012,121.019704 C266.64973,110.782246 282.840579,110.25159 293.62308,119.424493 L254.912694,158.450288 Z M300.246955,119.413886 C299.740169,118.823416 299.210002,118.246795 298.654116,117.686085 C286.119198,105.049034 265.723253,105.049034 253.188335,117.686085 C240.653418,130.323135 240.653418,150.885265 253.188335,163.522315 C265.721499,176.157303 286.113061,176.159071 298.648563,163.527619 L295.341886,160.194 C285.186876,170.426154 268.999826,170.955042 258.219371,161.783907 L277.569011,142.276313 L300.246955,119.413886 Z M304.570419,109.824206 L306.206513,109.824206 L306.206513,114.071521 L306.704824,114.071521 L306.704824,109.824206 L308.347933,109.824206 L308.347933,109.357193 L304.570419,109.357193 L304.570419,109.824206 Z M313.26291,109.357076 L311.633829,113.448523 L310.012056,109.357076 L309.246616,109.357076 L309.246616,114.071403 L309.723883,114.071403 L309.723883,109.859741 L311.39505,114.071403 L311.851274,114.071403 L313.515426,109.873884 L313.515426,114.071403 L314,114.071403 L314,109.357076 L313.26291,109.357076 Z"/>
  </defs>
  <g fill="none" fill-rule="evenodd">
    <use fill="#FFFFFF" stroke="#F1F4F5" stroke-width="2" mask="url(#c)" xlink:href="#a"/>
    <rect width="420" height="280" y="280" fill="#2391D3"/>
    <use fill="#8D989F" xlink:href="#d"/>
    <use fill="#000000" fill-opacity=".72" xlink:href="#d"/>
    <use fill="#FFFFFF" stroke="#F1F4F5" stroke-width="2" mask="url(#e)" xlink:href="#b"/>
    <use fill="#8D989F" xlink:href="#f"/>
    <use fill="#000000" fill-opacity=".72" xlink:href="#f"/>
    <path fill="#FFFFFF" d="M146.747924 441.144939C143.834928 437.66164 142.071698 433.172716 142.071698 428.272467L142.079881 396.419816C142.079881 393.822222 144.177461 391.709908 146.756108 391.709908 149.334462 391.709908 151.432334 393.822222 151.432334 396.419816L151.424151 428.272467C151.424151 433.172716 149.660921 437.66164 146.747924 441.144939L146.747924 441.144939zM181.819622 428.272467C181.819622 439.310476 173.00289 448.290092 162.044153 448.290092 157.630088 448.290092 153.512086 446.815391 150.210085 444.353923 153.902258 440.025581 156.100377 434.412879 156.100377 428.272467L156.10856 396.419816C156.10856 391.225806 151.912816 387 146.756108 387 141.599107 387 137.403655 391.225806 137.403655 396.419816L137.395472 428.272467C137.395472 434.412879 139.741184 440.025581 143.433357 444.353923 140.131356 446.815391 136.013354 448.290092 131.599289 448.290092 120.640552 448.290092 111.676226 439.310476 111.676226 428.272467L111.676226 389.415209 107 389.415209 107 428.272467C107 441.906892 118.111298 453 131.648682 453 137.387873 453 142.710587 450.991107 146.895518 447.654836 151.080448 450.991107 156.280412 453 162.019603 453 175.556694 453 186.496141 441.906892 186.496141 428.272467L186.496141 389.415209 181.819622 389.415209 181.819622 428.272467zM200.532448 451.752324L205.208674 451.752324 205.208674 389.28748 200.532448 389.28748 200.532448 451.752324zM246.148394 388.198382C236.920738 388.198382 228.763937 392.901219 223.913229 400.051675L223.913229 389.287686 219.237003 389.287686 219.237003 451.75253 223.913229 451.75253 223.913229 415.308124 223.91586 415.308124C223.91586 402.961594 233.889374 392.917424 246.148394 392.917424L246.148394 388.198382zM254.912694 438.450288C245.813926 427.579932 246.340294 411.257161 256.495012 401.019704 266.64973 390.782246 282.840579 390.25159 293.62308 399.424493L254.912694 438.450288zM300.246955 399.413886C299.740169 398.823416 299.210002 398.246795 298.654116 397.686085 286.119198 385.049034 265.723253 385.049034 253.188335 397.686085 240.653418 410.323135 240.653418 430.885265 253.188335 443.522315 265.721499 456.157303 286.113061 456.159071 298.648563 443.527619L295.341886 440.194C285.186876 450.426154 268.999826 450.955042 258.219371 441.783907L277.569011 422.276313 300.246955 399.413886zM304.570419 389.824206L306.206513 389.824206 306.206513 394.071521 306.704824 394.071521 306.704824 389.824206 308.347933 389.824206 308.347933 389.357193 304.570419 389.357193 304.570419 389.824206zM313.26291 389.357076L311.633829 393.448523 310.012056 389.357076 309.246616 389.357076 309.246616 394.071403 309.723883 394.071403 309.723883 389.859741 311.39505 394.071403 311.851274 394.071403 313.515426 389.873884 313.515426 394.071403 314 394.071403 314 389.357076 313.26291 389.357076zM566.747924 161.144939C563.834928 157.66164 562.071698 153.172716 562.071698 148.272467L562.079881 116.419816C562.079881 113.822222 564.177461 111.709908 566.756108 111.709908 569.334462 111.709908 571.432334 113.822222 571.432334 116.419816L571.424151 148.272467C571.424151 153.172716 569.660921 157.66164 566.747924 161.144939L566.747924 161.144939zM601.819622 148.272467C601.819622 159.310476 593.00289 168.290092 582.044153 168.290092 577.630088 168.290092 573.512086 166.815391 570.210085 164.353923 573.902258 160.025581 576.100377 154.412879 576.100377 148.272467L576.10856 116.419816C576.10856 111.225806 571.912816 107 566.756108 107 561.599107 107 557.403655 111.225806 557.403655 116.419816L557.395472 148.272467C557.395472 154.412879 559.741184 160.025581 563.433357 164.353923 560.131356 166.815391 556.013354 168.290092 551.599289 168.290092 540.640552 168.290092 531.676226 159.310476 531.676226 148.272467L531.676226 109.415209 527 109.415209 527 148.272467C527 161.906892 538.111298 173 551.648682 173 557.387873 173 562.710587 170.991107 566.895518 167.654836 571.080448 170.991107 576.280412 173 582.019603 173 595.556694 173 606.496141 161.906892 606.496141 148.272467L606.496141 109.415209 601.819622 109.415209 601.819622 148.272467zM620.532448 171.752324L625.208674 171.752324 625.208674 109.28748 620.532448 109.28748 620.532448 171.752324zM666.148394 108.198382C656.920738 108.198382 648.763937 112.901219 643.913229 120.051675L643.913229 109.287686 639.237003 109.287686 639.237003 171.75253 643.913229 171.75253 643.913229 135.308124 643.91586 135.308124C643.91586 122.961594 653.889374 112.917424 666.148394 112.917424L666.148394 108.198382zM674.912694 158.450288C665.813926 147.579932 666.340294 131.257161 676.495012 121.019704 686.64973 110.782246 702.840579 110.25159 713.62308 119.424493L674.912694 158.450288zM720.246955 119.413886C719.740169 118.823416 719.210002 118.246795 718.654116 117.686085 706.119198 105.049034 685.723253 105.049034 673.188335 117.686085 660.653418 130.323135 660.653418 150.885265 673.188335 163.522315 685.721499 176.157303 706.113061 176.159071 718.648563 163.527619L715.341886 160.194C705.186876 170.426154 688.999826 170.955042 678.219371 161.783907L697.569011 142.276313 720.246955 119.413886zM724.570419 109.824206L726.206513 109.824206 726.206513 114.071521 726.704824 114.071521 726.704824 109.824206 728.347933 109.824206 728.347933 109.357193 724.570419 109.357193 724.570419 109.824206zM733.26291 109.357076L731.633829 113.448523 730.012056 109.357076 729.246616 109.357076 729.246616 114.071403 729.723883 114.071403 729.723883 109.859741 731.39505 114.071403 731.851274 114.071403 733.515426 109.873884 733.515426 114.071403 734 114.071403 734 109.357076 733.26291 109.357076z"/>
    <path fill="#00C800" d="M566.747924,441.144939 C563.834928,437.66164 562.071698,433.172716 562.071698,428.272467 L562.079881,396.419816 C562.079881,393.822222 564.177461,391.709908 566.756108,391.709908 C569.334462,391.709908 571.432334,393.822222 571.432334,396.419816 L571.424151,428.272467 C571.424151,433.172716 569.660921,437.66164 566.747924,441.144939 L566.747924,441.144939 Z M601.819622,428.272467 C601.819622,439.310476 593.00289,448.290092 582.044153,448.290092 C577.630088,448.290092 573.512086,446.815391 570.210085,444.353923 C573.902258,440.025581 576.100377,434.412879 576.100377,428.272467 L576.10856,396.419816 C576.10856,391.225806 571.912816,387 566.756108,387 C561.599107,387 557.403655,391.225806 557.403655,396.419816 L557.395472,428.272467 C557.395472,434.412879 559.741184,440.025581 563.433357,444.353923 C560.131356,446.815391 556.013354,448.290092 551.599289,448.290092 C540.640552,448.290092 531.676226,439.310476 531.676226,428.272467 L531.676226,389.415209 L527,389.415209 L527,428.272467 C527,441.906892 538.111298,453 551.648682,453 C557.387873,453 562.710587,450.991107 566.895518,447.654836 C571.080448,450.991107 576.280412,453 582.019603,453 C595.556694,453 606.496141,441.906892 606.496141,428.272467 L606.496141,389.415209 L601.819622,389.415209 L601.819622,428.272467 Z M620.532448,451.752324 L625.208674,451.752324 L625.208674,389.28748 L620.532448,389.28748 L620.532448,451.752324 Z M666.148394,388.198382 C656.920738,388.198382 648.763937,392.901219 643.913229,400.051675 L643.913229,389.287686 L639.237003,389.287686 L639.237003,451.75253 L643.913229,451.75253 L643.913229,415.308124 L643.91586,415.308124 C643.91586,402.961594 653.889374,392.917424 666.148394,392.917424 L666.148394,388.198382 Z M674.912694,438.450288 C665.813926,427.579932 666.340294,411.257161 676.495012,401.019704 C686.64973,390.782246 702.840579,390.25159 713.62308,399.424493 L674.912694,438.450288 Z M720.246955,399.413886 C719.740169,398.823416 719.210002,398.246795 718.654116,397.686085 C706.119198,385.049034 685.723253,385.049034 673.188335,397.686085 C660.653418,410.323135 660.653418,430.885265 673.188335,443.522315 C685.721499,456.157303 706.113061,456.159071 718.648563,443.527619 L715.341886,440.194 C705.186876,450.426154 688.999826,450.955042 678.219371,441.783907 L697.569011,422.276313 L720.246955,399.413886 Z M724.570419,389.824206 L726.206513,389.824206 L726.206513,394.071521 L726.704824,394.071521 L726.704824,389.824206 L728.347933,389.824206 L728.347933,389.357193 L724.570419,389.357193 L724.570419,389.824206 Z M733.26291,389.357076 L731.633829,393.448523 L730.012056,389.357076 L729.246616,389.357076 L729.246616,394.071403 L729.723883,394.071403 L729.723883,389.859741 L731.39505,394.071403 L731.851274,394.071403 L733.515426,389.873884 L733.515426,394.071403 L734,394.071403 L734,389.357076 L733.26291,389.357076 Z"/>
  </g>
</svg>

<svg xmlns="http://www.w3.org/2000/svg" width="840" height="560" viewBox="0 0 840 560" xmlns:xlink="http://www.w3.org/1999/xlink">
  <defs>
    <path id="a" d="M0 0h420v280H0z"/>
    <mask id="c" width="420" height="280" x="0" y="0" fill="#fff">
      <use xlink:href="#a"/>
    </mask>
    <path id="d" d="M420 0h420v280H420z"/>
    <path id="b" d="M420 280h420v280H420z"/>
    <mask id="e" width="420" height="280" x="0" y="0" fill="#fff">
      <use xlink:href="#b"/>
    </mask>
    <path id="f" d="M146.748 161.145a20.004 20.004 0 0 1-4.676-12.873l.008-31.852c0-2.598 2.097-4.71 4.676-4.71 2.578 0 4.676 2.112 4.676 4.71l-.008 31.852c0 4.9-1.763 9.39-4.676 12.873zm35.072-12.873c0 11.038-8.817 20.018-19.776 20.018a19.796 19.796 0 0 1-11.834-3.936c3.692-4.328 5.89-9.941 5.89-16.082l.009-31.852c0-5.194-4.196-9.42-9.353-9.42s-9.352 4.226-9.352 9.42l-.009 31.852c0 6.14 2.346 11.754 6.038 16.082a19.796 19.796 0 0 1-11.834 3.936c-10.958 0-19.923-8.98-19.923-20.018v-38.857H107v38.857C107 161.907 118.111 173 131.649 173a24.44 24.44 0 0 0 15.247-5.345C151.08 170.99 156.28 173 162.02 173c13.537 0 24.476-11.093 24.476-24.728v-38.857h-4.676v38.857zm18.712 23.48h4.677v-62.465h-4.677v62.465zm45.616-63.554c-9.227 0-17.384 4.703-22.235 11.854v-10.764h-4.676v62.465h4.676v-36.445h.003c0-12.346 9.973-22.39 22.232-22.39v-4.72zm8.765 50.252c-9.1-10.87-8.573-27.193 1.582-37.43 10.155-10.238 26.346-10.768 37.128-1.596l-38.71 39.026zm45.334-39.036a32.723 32.723 0 0 0-1.593-1.728c-12.535-12.637-32.93-12.637-45.466 0-12.535 12.637-12.535 33.2 0 45.836 12.533 12.635 32.925 12.637 45.46.006l-3.306-3.334c-10.155 10.232-26.342 10.761-37.123 1.59l19.35-19.508 22.678-22.862zm4.323-9.59h1.637v4.248h.498v-4.248h1.643v-.467h-3.778v.467zm8.693-.467l-1.63 4.092-1.62-4.092h-.766v4.714h.477v-4.211l1.671 4.211h.456l1.664-4.197v4.197H314v-4.714h-.737z"/>
  </defs>
  <g fill="none" fill-rule="evenodd">
    <use fill="#FFF" stroke="#F1F4F5" stroke-width="2" mask="url(#c)" xlink:href="#a"/>
    <path fill="#2391D3" d="M0 280h420v280H0z"/>
    <use fill="#8D989F" xlink:href="#d"/>
    <use fill="#000" fill-opacity=".72" xlink:href="#d"/>
    <use fill="#FFF" stroke="#F1F4F5" stroke-width="2" mask="url(#e)" xlink:href="#b"/>
    <use fill="#8D989F" xlink:href="#f"/>
    <use fill="#000" fill-opacity=".72" xlink:href="#f"/>
    <path fill="#FFF" d="M146.748 441.145a20.004 20.004 0 0 1-4.676-12.873l.008-31.852c0-2.598 2.097-4.71 4.676-4.71 2.578 0 4.676 2.112 4.676 4.71l-.008 31.852c0 4.9-1.763 9.39-4.676 12.873zm35.072-12.873c0 11.038-8.817 20.018-19.776 20.018a19.796 19.796 0 0 1-11.834-3.936c3.692-4.328 5.89-9.941 5.89-16.082l.009-31.852c0-5.194-4.196-9.42-9.353-9.42s-9.352 4.226-9.352 9.42l-.009 31.852c0 6.14 2.346 11.754 6.038 16.082a19.796 19.796 0 0 1-11.834 3.936c-10.958 0-19.923-8.98-19.923-20.018v-38.857H107v38.857C107 441.907 118.111 453 131.649 453a24.44 24.44 0 0 0 15.247-5.345C151.08 450.99 156.28 453 162.02 453c13.537 0 24.476-11.093 24.476-24.728v-38.857h-4.676v38.857zm18.712 23.48h4.677v-62.465h-4.677v62.465zm45.616-63.554c-9.227 0-17.384 4.703-22.235 11.854v-10.764h-4.676v62.465h4.676v-36.445h.003c0-12.346 9.973-22.39 22.232-22.39v-4.72zm8.765 50.252c-9.1-10.87-8.573-27.193 1.582-37.43 10.155-10.238 26.346-10.768 37.128-1.596l-38.71 39.026zm45.334-39.036a32.723 32.723 0 0 0-1.593-1.728c-12.535-12.637-32.93-12.637-45.466 0-12.535 12.637-12.535 33.2 0 45.836 12.533 12.635 32.925 12.637 45.46.006l-3.306-3.334c-10.155 10.232-26.342 10.761-37.123 1.59l19.35-19.508 22.678-22.862zm4.323-9.59h1.637v4.248h.498v-4.248h1.643v-.467h-3.778v.467zm8.693-.467l-1.63 4.092-1.62-4.092h-.766v4.714h.477v-4.211l1.671 4.211h.456l1.664-4.197v4.197H314v-4.714h-.737zm253.485-228.212a20.004 20.004 0 0 1-4.676-12.873l.008-31.852c0-2.598 2.097-4.71 4.676-4.71 2.578 0 4.676 2.112 4.676 4.71l-.008 31.852c0 4.9-1.763 9.39-4.676 12.873zm35.072-12.873c0 11.038-8.817 20.018-19.776 20.018a19.796 19.796 0 0 1-11.834-3.936c3.692-4.328 5.89-9.941 5.89-16.082l.009-31.852c0-5.194-4.196-9.42-9.353-9.42s-9.352 4.226-9.352 9.42l-.009 31.852c0 6.14 2.346 11.754 6.038 16.082a19.796 19.796 0 0 1-11.834 3.936c-10.958 0-19.923-8.98-19.923-20.018v-38.857H527v38.857C527 161.907 538.111 173 551.649 173a24.44 24.44 0 0 0 15.247-5.345C571.08 170.99 576.28 173 582.02 173c13.537 0 24.476-11.093 24.476-24.728v-38.857h-4.676v38.857zm18.712 23.48h4.677v-62.465h-4.677v62.465zm45.616-63.554c-9.227 0-17.384 4.703-22.235 11.854v-10.764h-4.676v62.465h4.676v-36.445h.003c0-12.346 9.973-22.39 22.232-22.39v-4.72zm8.765 50.252c-9.1-10.87-8.573-27.193 1.582-37.43 10.155-10.238 26.346-10.768 37.128-1.596l-38.71 39.026zm45.334-39.036a32.723 32.723 0 0 0-1.593-1.728c-12.535-12.637-32.93-12.637-45.466 0-12.535 12.637-12.535 33.2 0 45.836 12.533 12.635 32.925 12.637 45.46.006l-3.306-3.334c-10.155 10.232-26.342 10.761-37.123 1.59l19.35-19.508 22.678-22.862zm4.323-9.59h1.637v4.248h.498v-4.248h1.643v-.467h-3.778v.467zm8.693-.467l-1.63 4.092-1.62-4.092h-.766v4.714h.477v-4.211l1.671 4.211h.456l1.664-4.197v4.197H734v-4.714h-.737z"/>
    <path fill="#00C800" d="M566.748 441.145a20.004 20.004 0 0 1-4.676-12.873l.008-31.852c0-2.598 2.097-4.71 4.676-4.71 2.578 0 4.676 2.112 4.676 4.71l-.008 31.852c0 4.9-1.763 9.39-4.676 12.873zm35.072-12.873c0 11.038-8.817 20.018-19.776 20.018a19.796 19.796 0 0 1-11.834-3.936c3.692-4.328 5.89-9.941 5.89-16.082l.009-31.852c0-5.194-4.196-9.42-9.353-9.42s-9.352 4.226-9.352 9.42l-.009 31.852c0 6.14 2.346 11.754 6.038 16.082a19.796 19.796 0 0 1-11.834 3.936c-10.958 0-19.923-8.98-19.923-20.018v-38.857H527v38.857C527 441.907 538.111 453 551.649 453a24.44 24.44 0 0 0 15.247-5.345C571.08 450.99 576.28 453 582.02 453c13.537 0 24.476-11.093 24.476-24.728v-38.857h-4.676v38.857zm18.712 23.48h4.677v-62.465h-4.677v62.465zm45.616-63.554c-9.227 0-17.384 4.703-22.235 11.854v-10.764h-4.676v62.465h4.676v-36.445h.003c0-12.346 9.973-22.39 22.232-22.39v-4.72zm8.765 50.252c-9.1-10.87-8.573-27.193 1.582-37.43 10.155-10.238 26.346-10.768 37.128-1.596l-38.71 39.026zm45.334-39.036a32.723 32.723 0 0 0-1.593-1.728c-12.535-12.637-32.93-12.637-45.466 0-12.535 12.637-12.535 33.2 0 45.836 12.533 12.635 32.925 12.637 45.46.006l-3.306-3.334c-10.155 10.232-26.342 10.761-37.123 1.59l19.35-19.508 22.678-22.862zm4.323-9.59h1.637v4.248h.498v-4.248h1.643v-.467h-3.778v.467zm8.693-.467l-1.63 4.092-1.62-4.092h-.766v4.714h.477v-4.211l1.671 4.211h.456l1.664-4.197v4.197H734v-4.714h-.737z"/>
  </g>
</svg>
